X:510
T:Reel 510
M:4/4
K:Bmin
L:1/8
F>E (3DCD A>D (3EDA | (3GFE D>C  (3DEF F>D|E>A (3AAA E>A (3AAA |E>A (3AAA c>A (3ABA ||G>E (3EDE A>F (3FGA |G>A (3AAA B>A (3AGA |G>B (3EAB c2Ac:||2 (3AcA BA GEF2|E>F (3AAA B>A (3AAA |E>E (3EEE B>A (3AAA |e>A (3AAA B>B (3ABA |e>B (3BAB A2AF|E>A (3AAA B>A (3AAA |E>A (3AAA d>B (3cBA |e2 (3fAB e2Ac|e2fd gecA|
